svg/u1f439.svg

<svg viewBox="0 0 128 128" xmlns="http://www.w3.org/2000/svg">
  <path d="M62.07,29.22c16.33,0,29.53,8.62,43.74,33.65c11.83,20.84,9.57,43.5-3,50.45s-17.32,5.68-22.9,5.37 c-5.19-0.28-17.08-22.83-17.08-22.83s-10.86,22.45-18.4,22.34c-2.84-0.04-18.02,0.19-25.9-9.76s-7.51-26.84,0-41.86 S41.79,29.22,62.07,29.22z" fill="#F2A159"/>
  <path d="M117.26,32.79c0.43,11.28-8.16,18.02-17.46,18.02s-15.2-8.09-15.2-17.27s8.16-16.33,17.46-16.33 S116.91,23.62,117.26,32.79z" fill="#F2A159"/>
  <path d="M23.59,47.62C12.86,44.12,9.65,36.03,12.52,26.97s12.65-13.47,21.4-10.7s12.44,12.52,9.57,21.59 S31.66,50.24,23.59,47.62z" fill="#F2A159"/>
  <path d="M36.73,32.22c0,4.77-3.75,8.07-8.26,8.07s-7.88-3.68-7.88-8.45s3.37-8.63,7.88-8.63 C34.29,23.21,36.73,27.46,36.73,32.22z" fill="#FFA7AA"/>
  <path d="M100.13,41.63c-4.75-0.41-7.72-4.44-7.32-8.93s5.06-7.84,9.81-7.42s7.6,4.42,7.21,8.91 C109.32,39.98,104.88,42.05,100.13,41.63z" fill="#FFA7AA"/>
  <path d="M88.72,69.48c0.46,3.44-0.47,7.04-3.87,7.11c-3.56,0.07-4.79-3-5.14-6.45s1.09-5.44,3.66-5.82 C86.57,63.85,88.35,66.67,88.72,69.48z" fill="#2E3030"/>
  <path d="M48.25,69.83c0.12,3.47-1.29,7.25-4.95,6.97c-3.55-0.27-4.6-4.5-4.13-8.17 c0.44-3.44,1.91-4.67,4.5-4.79C46.9,63.7,48.16,67,48.25,69.83z" fill="#2E2D31"/>
  <path d="M63.43,112.28c0,0,9.01,5.91,16.61,6.48s16.47-2.39,17.03-13.51c0.64-12.67-8.87-19.57-11.26-21.4 c-1.42-1.09-8.73-6.19-8.73-6.19s-1.97-15.49-2.67-20.55c-0.7-5.07-1.25-12.95-10.98-13.09c-9.29-0.14-10.44,9.43-10.56,12.53 c-0.14,3.66-1.55,21.26-1.55,21.26s-5.31,3.52-9.01,6.34c-3.24,2.46-11.6,8.73-11.26,19.43c0.28,9.01,5.07,14.92,15.2,14.64 C58.38,117.86,63.43,112.28,63.43,112.28z" fill="#FFD2B1"/>
  <path d="M57.42,99.85c0,0-0.74,9.22,2.44,10.7c2.63,1.22,4.04-2.63,4.04-2.63s0.88,2.23,3,2.63 C70.94,111.3,70,99,70,99l-6.01-3.19L57.42,99.85z" fill="#FFFEFD"/>
  <path d="M59.91,94.45c0-1.32-1.83-1.97-3.57-3.14c-1.08-0.73-2.44-1.64-2.06-3.14 c0.38-1.5,3.14-1.64,8.68-1.74c5.54-0.09,9.43,0.42,9.24,1.92c-0.19,1.5-1.88,2.53-3.14,3.47c-0.59,0.44-2.67,1.6-2.58,2.44 c0.09,0.84,2.53,2.79,4.5,2.82c3.28,0.05,4.79-1.88,5.54-2.72c0.75-0.84,1.69-1.78,2.91-1.22s0.14,3.85-2.3,6.1 c-2.44,2.25-6.8,2.82-9.62,1.6s-4.08-2.96-4.08-2.96s-3.05,4.36-8.02,3.61c-3.77-0.57-6.19-3-7.32-4.97 c-1.13-1.97-0.77-3.14,0.19-3.28c1.22-0.19,1.97,1.22,3.38,1.88c1.41,0.66,2.49,1.45,4.74,1.36C58.64,96.37,59.91,95.39,59.91,94.45 z" fill="#2F302D"/>
  <path d="M25.47,106.92c-0.46,0-0.91-0.22-1.18-0.64c-0.42-0.65-0.24-1.52,0.41-1.94 c0.22-0.14,5.43-3.52,8.35-5.12c2.91-1.6,7.99-4.32,7.99-4.32s1.1-0.78,1.91,0.41c0.81,1.2-0.58,2.06-0.58,2.06 c0,0-5.06,2.72-7.97,4.31c-2.83,1.55-8.12,4.98-8.17,5.01C25.99,106.85,25.73,106.92,25.47,106.92z" fill="#5F646D"/>
  <path d="M31.27,113.93c-0.33,0-0.66-0.11-0.92-0.35c-0.58-0.51-0.64-1.39-0.13-1.98 c0.11-0.12,2.72-3.1,5.65-5.75c2.91-2.63,5.64-5.07,5.64-5.07c0.58-0.52,1.46-0.47,1.98,0.11c0.52,0.58,0.47,1.46-0.11,1.98 c0,0-2.72,2.44-5.63,5.07c-2.81,2.54-5.4,5.48-5.42,5.51C32.05,113.77,31.66,113.93,31.27,113.93z" fill="#5F646D"/>
  <path d="M102.6,107.73c-0.33,0-0.67-0.12-0.93-0.36c-0.01-0.01-1.82-1.59-7.4-5.01 c-5.67-3.48-9.03-5.07-9.06-5.09c-0.7-0.33-1-1.17-0.67-1.86c0.33-0.7,1.16-1,1.86-0.67c0.14,0.07,3.51,1.67,9.33,5.23 c5.86,3.59,7.73,5.24,7.8,5.31c0.58,0.52,0.62,1.4,0.11,1.98C103.36,107.58,102.98,107.73,102.6,107.73z" fill="#5F646D"/>
  <path d="M96.22,113.27c-0.37,0-0.74-0.15-1.02-0.44c-0.03-0.03-3.1-3.28-6.21-6.12 c-3.05-2.78-6.43-4.89-6.46-4.91c-0.66-0.41-0.86-1.27-0.45-1.93c0.41-0.66,1.27-0.86,1.93-0.45c0.15,0.09,3.62,2.26,6.87,5.22 c3.19,2.91,6.24,6.13,6.36,6.27c0.53,0.56,0.5,1.45-0.06,1.98C96.91,113.15,96.56,113.27,96.22,113.27z" fill="#5F646D"/>
</svg>

<svg viewBox="0 0 128 128" xmlns="http://www.w3.org/2000/svg">
  <defs/>
  <path d="M62.07,29.22 C78.4,29.22 91.6,37.84 105.81,62.87 C117.64,83.71 115.38,106.37 102.81,113.32 C90.24,120.27 85.49,119 79.91,118.69 C74.72,118.41 62.83,95.86 62.83,95.86 C62.83,95.86 51.97,118.31 44.43,118.2 C41.59,118.16 26.41,118.39 18.53,108.44 C10.65,98.49 11.02,81.6 18.53,66.58 C26.04,51.56 41.79,29.22 62.07,29.22 Z" fill="#F2A159"/>
  <path d="M117.26,32.79 C117.69,44.07 109.1,50.81 99.8,50.81 C90.5,50.81 84.6,42.72 84.6,33.54 C84.6,24.36 92.76,17.21 102.06,17.21 C111.36,17.21 116.91,23.62 117.26,32.79 Z" fill="#F2A159"/>
  <path d="M23.59,47.62 C12.86,44.12 9.65,36.03 12.52,26.97 C15.39,17.91 25.17,13.5 33.92,16.27 C42.67,19.04 46.36,28.79 43.49,37.86 C40.62,46.93 31.66,50.24 23.59,47.62 Z" fill="#F2A159"/>
  <path d="M36.73,32.22 C36.73,36.99 32.98,40.29 28.47,40.29 C23.96,40.29 20.59,36.61 20.59,31.84 C20.59,27.07 23.96,23.21 28.47,23.21 C34.29,23.21 36.73,27.46 36.73,32.22 Z" fill="#FFA7AA"/>
  <path d="M100.13,41.63 C95.38,41.22 92.41,37.19 92.81,32.7 C93.21,28.21 97.87,24.86 102.62,25.28 C107.37,25.7 110.22,29.7 109.83,34.19 C109.32,39.98 104.88,42.05 100.13,41.63 Z" fill="#FFA7AA"/>
  <path d="M88.72,69.48 C89.18,72.92 88.25,76.52 84.85,76.59 C81.29,76.66 80.06,73.59 79.71,70.14 C79.36,66.69 80.8,64.7 83.37,64.32 C86.57,63.85 88.35,66.67 88.72,69.48 Z" fill="#2E3030"/>
  <path d="M48.25,69.83 C48.37,73.3 46.96,77.08 43.3,76.8 C39.75,76.53 38.7,72.3 39.17,68.63 C39.61,65.19 41.08,63.96 43.67,63.84 C46.9,63.7 48.16,67 48.25,69.83 Z" fill="#2E2D31"/>
  <path d="M63.43,112.28 C63.43,112.28 72.44,118.19 80.04,118.76 C87.64,119.33 96.51,116.37 97.07,105.25 C97.71,92.58 88.2,85.68 85.81,83.85 C84.39,82.76 77.08,77.66 77.08,77.66 C77.08,77.66 75.11,62.17 74.41,57.11 C73.71,52.04 73.16,44.16 63.43,44.02 C54.14,43.88 52.99,53.45 52.87,56.55 C52.73,60.21 51.32,77.81 51.32,77.81 C51.32,77.81 46.01,81.33 42.31,84.15 C39.07,86.61 30.71,92.88 31.05,103.58 C31.33,112.59 36.12,118.5 46.25,118.22 C58.38,117.86 63.43,112.28 63.43,112.28 Z" fill="#FFD2B1"/>
  <path d="M57.42,99.85 C57.42,99.85 56.68,109.07 59.86,110.55 C62.49,111.77 63.9,107.92 63.9,107.92 C63.9,107.92 64.78,110.15 66.9,110.55 C70.94,111.3 70,99 70,99 L63.99,95.81 L57.42,99.85 Z" fill="#FFFEFD"/>
  <path d="M59.91,94.45 C59.91,93.13 58.08,92.48 56.34,91.31 C55.26,90.58 53.9,89.67 54.28,88.17 C54.66,86.67 57.42,86.53 62.96,86.43 C68.5,86.34 72.39,86.85 72.2,88.35 C72.01,89.85 70.32,90.88 69.06,91.82 C68.47,92.26 66.39,93.42 66.48,94.26 C66.57,95.1 69.01,97.05 70.98,97.08 C74.26,97.13 75.77,95.2 76.52,94.36 C77.27,93.52 78.21,92.58 79.43,93.14 C80.65,93.7 79.57,96.99 77.13,99.24 C74.69,101.49 70.33,102.06 67.51,100.84 C64.69,99.62 63.43,97.88 63.43,97.88 C63.43,97.88 60.38,102.24 55.41,101.49 C51.64,100.92 49.22,98.49 48.09,96.52 C46.96,94.55 47.32,93.38 48.28,93.24 C49.5,93.05 50.25,94.46 51.66,95.12 C53.07,95.78 54.15,96.57 56.4,96.48 C58.64,96.37 59.91,95.39 59.91,94.45 Z" fill="#2F302D"/>
  <path d="M25.47,106.92 C25.01,106.92 24.56,106.7 24.29,106.28 C23.87,105.63 24.05,104.76 24.7,104.34 C24.92,104.2 30.13,100.82 33.05,99.22 C35.96,97.62 41.04,94.9 41.04,94.9 C41.04,94.9 42.14,94.12 42.95,95.31 C43.76,96.51 42.37,97.37 42.37,97.37 C42.37,97.37 37.31,100.09 34.4,101.68 C31.57,103.23 26.28,106.66 26.23,106.69 C25.99,106.85 25.73,106.92 25.47,106.92 Z" fill="#5F646D"/>
  <path d="M31.27,113.93 C30.94,113.93 30.61,113.82 30.35,113.58 C29.77,113.07 29.71,112.19 30.22,111.6 C30.33,111.48 32.94,108.5 35.87,105.85 C38.78,103.22 41.51,100.78 41.51,100.78 C42.09,100.26 42.97,100.31 43.49,100.89 C44.01,101.47 43.96,102.35 43.38,102.87 C43.38,102.87 40.66,105.31 37.75,107.94 C34.94,110.48 32.35,113.42 32.33,113.45 C32.05,113.77 31.66,113.93 31.27,113.93 Z" fill="#5F646D"/>
  <path d="M102.6,107.73 C102.27,107.73 101.93,107.61 101.67,107.37 C101.66,107.36 99.85,105.78 94.27,102.36 C88.6,98.88 85.24,97.29 85.21,97.27 C84.51,96.94 84.21,96.1 84.54,95.41 C84.87,94.71 85.7,94.41 86.4,94.74 C86.54,94.81 89.91,96.41 95.73,99.97 C101.59,103.56 103.46,105.21 103.53,105.28 C104.11,105.8 104.15,106.68 103.64,107.26 C103.36,107.58 102.98,107.73 102.6,107.73 Z" fill="#5F646D"/>
  <path d="M96.22,113.27 C95.85,113.27 95.48,113.12 95.2,112.83 C95.17,112.8 92.1,109.55 88.99,106.71 C85.94,103.93 82.56,101.82 82.53,101.8 C81.87,101.39 81.67,100.53 82.08,99.87 C82.49,99.21 83.35,99.01 84.01,99.42 C84.16,99.51 87.63,101.68 90.88,104.64 C94.07,107.55 97.12,110.77 97.24,110.91 C97.77,111.47 97.74,112.36 97.18,112.89 C96.91,113.15 96.56,113.27 96.22,113.27 Z" fill="#5F646D"/>
</svg>
